X:1
T:Yellowstone, 76.76 D
T:Yellowstone, 76.76 D
T:John Samuel Hendricks, 1900
T:Public Domain Courtesy of the Cyber Hymnal™
C:John Samuel Hendricks, 1900
Z:Public Domain
Z:Courtesy of the Cyber Hymnal™
%%score ( 1 2 ) ( 3 4 )
L:1/8
Q:1/4=109
M:4/4
K:Ab
V:1 treble 
V:2 treble 
V:3 bass 
V:4 bass 
V:1
 ([Ec][DB]) | [CA]2 [EG]2 [DF]2 [DA]2 | [CE]2 [CA]4 ([CA][DB]) | [Ec]2 [EB]2 [Ed]2 [Ec]2 | %4
 [EB]6 ([Ec][DB]) | [CA]2 [EG]2 [DF]2 [DA]2 | [CE]2 [CA]4 (AB) | [Ac]3 [Ae] [GB]2 [Gc]2 | A6 (cd) | %9
 [Ae]3 [Ae] [Af]2 [Ae]2 | [Ec]2 [Ae]4 ([Ac][GB]) | A3 [EA] [GB]2 [Ae]2 | [GB]6 ([Ec][DB]) | %13
 [CA]3 [EG] [DF]2 [DA]2 x8 | [CE]2 [CA]4 (AB) | [Ac]3 [Ae] [GB]2 [Gc]2 | A6 |] %17
V:2
 x2 | x8 | x8 | x8 | x8 | x8 | x6 E2 | x8 | A6 E2 | x8 | x8 | A3 x5 | x8 | x16 | x6 E2 | x8 | A6 |] %17
V:3
 [A,,A,]2 | [A,,A,]2 [C,A,]2 [D,A,]2 [F,A,]2 | A,2 A,4 [A,,A,]2 | %3
 [A,,A,]2 [C,A,]2 [B,,G,]2 [A,,A,]2 | [E,G,]6 [A,,A,]2 | [A,,A,]2 [C,A,]2 [D,A,]2 [F,A,]2 | %6
 A,2 A,4 (CD) | [E,E]3 [E,C] [E,D]2 [E,E]2 | [A,,C]6 (A,B,) | [A,C]3 [A,C] [A,D]2 [A,D]2 | %10
 A,2 [A,C]4 (EC) | [A,C]3 [A,C] [A,E]2 [C,E]2 | [E,E]6 [E,G,]2 | %13
 [A,,A,]3 [C,A,] [D,A,]2 [F,A,]2 A,2 A,4 (CD) | [E,E]3 [E,C] [E,D]2 [E,E]2 | [A,,C]6 x2 | x6 |] %17
V:4
 x2 | x8 | A,2 A,4 x2 | x8 | x8 | x8 | A,2 A,4 A,2 | x8 | x6 A,2 | x8 | A,2 x2 A,2 x2 | x8 | x8 | %13
 x8 A,2 A,4 A,2 | x8 | x8 | x6 |] %17

